X: 18901
T: Incahoots
R: polka
M: 2/4
K: Gminor
K:Bbmix
B,3/2D/ FG|AG/F/ EG|F2 e2|dB Ac|BB, DF|AG/F/ EG|F2 _D3/2C/|
B,B, DF|AG/F/ EG|F2 e2|dB Ac|BB, DF|AG/F/ EG|F2 _D3/2C/|B,2 z2|
[Bf]2 e2|dB Ac|B [Bf]2 [Bf]|ef af|ba ff|ee dB|Ac BB,|DF AG/F/|_D3/2C/ B,2|
[Bf]2 e2|dB Ac|B [Bf]2 [Bf]|ef af|ba ff|ee dB|Ac BB,|DF AG/F/|_D2|

